X:41
T:Fox . CJF.041
R:Quadrille
S:C.J.Fox MS, 1829/33, Beverley,E.Yorks.
N:Just “Quadrille” in MS – My title..CGP.
B:Kidson Coll.Mitchell Lib.M1805
O:England
A:East Yorkshire
Z:vmp.P J Headford 2000 & 2008
M:6/8
L:1/8
Q:3/8=120
K:G
d|\
“$”d2Bd2g|b2ag2f|e2^de2a|c’2ba2g|\
d2Bd2g|b2ag2f|e2de2f|g3g2||!
d|d2Bb2a|gfed2B|dcA cBG|FG^GA2d|\
dBgb2a|gfe bag|fed ^cBc|e3d2″$”||!
B|e2^de2f|g2fe2f|g2eg2e|f2^dB2B|\
e2^de2f|g2za3|b2af2g|eg” Da Capo”fe2|]

